X:93
T:Old Simon the King
Z:Jack Campin, http://www.campin.me.uk/
F:Jack Campin's Nine-Note Tunebook
% last edit 03-02-2013
S:Simpson, The British Broadside Ballad and Its Music
M:9/4
L:1/4
Q:3/4=112
K:DMix
G2G G>AG G2D|G2G G>AG   F2D|E2E E2E E>FG  |A2G F2E D2D:|
G2G G>Bc d2G|G2G G2A/B/ c2E|E2E E2E E2F/G/|A2G F2E D2D:|

